Costumes/A-glow.svg

<?xml version="1.0" encoding="UTF-8" standalone="no"?>
<svg
   version="1.1"
   width="73.824463"
   height="74.599998"
   id="svg8"
   sodipodi:docname="A-glow.svg"
   xmlns:inkscape="http://www.inkscape.org/namespaces/inkscape"
   xmlns:sodipodi="http://sodipodi.sourceforge.net/DTD/sodipodi-0.dtd"
   xmlns="http://www.w3.org/2000/svg"
   xmlns:svg="http://www.w3.org/2000/svg">
  <defs
     id="defs12" />
  <sodipodi:namedview
     id="namedview10"
     pagecolor="#ffffff"
     bordercolor="#000000"
     borderopacity="0.25"
     inkscape:showpageshadow="2"
     inkscape:pageopacity="0.0"
     inkscape:pagecheckerboard="0"
     inkscape:deskcolor="#d1d1d1" />
  <!-- Exported by Scratch - http://scratch.mit.edu/ -->
  <g
     id="ID0.49839345877990127">
    <g
       id="ID0.14111100835725665">
      <g
         id="ID0.9008341920562088">
        <path
           id="ID0.17456053430214524"
           fill="#00cccc"
           d="m 73.78,52.06 c -0.03,-0.35 -0.07,-0.69 -0.12,-1.03 -0.19,-1.12 -0.77,-4.52 -3.51,-7.26 -0.26,-0.26 -0.54,-0.51 -0.83,-0.74 -2.88,-2.36 -6.37,-3.5 -9.96,-3.23 -0.43,-1.12 -0.8,-2.1 -1.11,-2.93 -0.05,-0.13 -0.11,-0.26 -0.16,-0.39 -2.87,-6.86 -4.98,-11.9 -6.33,-15.12 -0.05,-0.12 -0.1,-0.23 -0.15,-0.35 -0.69,-1.5 -0.87,-2.02 -0.88,-2.04 -0.11,-0.34 -0.24,-0.68 -0.39,-1.01 -0.37,-0.83 -0.66,-1.48 -0.86,-1.95 -0.09,-0.27 -0.31,-1 -0.76,-2.66 C 47.97,10.55 47.16,8.46 46.14,6.75 43.95,3.05 40.23,0.63 35.95,0.09 35.49,0.03 35.03,0 34.57,0 34.13,0 34.13,0 31.21,0.2 27.16,0.47 23.75,0.87 20.78,1.42 L 20.63,1.45 C 19.29,1.72 18.31,1.9 17.68,2.01 14.78,2.52 12.1,3.93 9.95,6.08 6.47,9.57 5.27,14.61 6.81,19.24 c 0.64,1.9 1.79,3.6 3.32,4.9 0.89,0.76 3.34,2.84 6.95,3.42 -0.95,4.56 -1.87,8.62 -2.76,12.16 -0.06,0.22 -0.11,0.44 -0.15,0.66 -0.03,0.16 -0.06,0.31 -0.08,0.46 -0.87,0.01 -1.72,0.06 -2.53,0.17 -0.09,0.02 -0.17,0.03 -0.26,0.04 C 4.54,42.18 0,47.53 0,54.37 c 0,4.23 2.13,8.18 5.69,10.55 0.1,0.08 0.21,0.15 0.32,0.21 2.32,1.43 5.11,2.22 9.35,2.64 0.06,0.01 0.12,0.02 0.18,0.02 5.91,0.49 7.24,0.62 7.52,0.65 1.36,0.19 2.24,0.31 2.66,0.37 0.62,0.11 1.25,0.16 1.91,0.16 1.77,0 3.5,-0.32 5.11,-0.94 0.77,1.29 1.77,2.46 2.98,3.45 2.48,2.04 5.4,3.12 8.44,3.12 0.13,0 0.26,0 0.39,-0.01 3.92,-0.13 7.02,-1.08 9.5,-2.87 0.14,-0.1 0.27,-0.2 0.4,-0.31 2.55,-2.03 5.73,-3.8 9.44,-5.26 1.96,-0.72 4.76,-1.97 6.92,-4.44 0.13,-0.14 0.24,-0.28 0.35,-0.42 1.38,-1.74 2.95,-4.75 2.62,-9.23 z M 20.99,66.75 c 1.02,0.77 2.19,1.37 3.44,1.76 -1.26,-0.37 -2.42,-0.98 -3.44,-1.76 z" />
      </g>
    </g>
    <g
       id="ID0.9128967123106122">
      <path
         id="ID0.027485548984259367"
         fill="#ffffff"
         d="m 62.546,54.454 c -0.412,0.47 -1.262,0.938 -2.551,1.407 -4.811,1.877 -8.943,4.193 -12.402,6.949 -0.646,0.469 -1.791,0.732 -3.432,0.791 -0.47,0 -0.954,-0.206 -1.451,-0.615 -0.499,-0.41 -0.748,-0.88 -0.748,-1.407 0,-0.704 0.792,-1.612 2.375,-2.728 1.113,-0.703 2.229,-1.437 3.344,-2.199 0.057,-0.292 -0.91,-3.752 -2.906,-10.379 -3.228,-0.058 -8.305,0.996 -15.229,3.165 -0.412,0.118 -0.647,0.352 -0.705,0.704 -0.059,0.352 -0.147,0.937 -0.264,1.758 -0.113,0.176 -0.225,0.439 -0.337,0.791 0,0.235 0.337,0.485 1.012,0.749 0.673,0.265 1.1,0.515 1.275,0.748 0.176,0.235 0.264,0.527 0.264,0.88 0,0.703 -0.308,1.364 -0.924,1.98 -0.615,0.615 -1.363,0.923 -2.242,0.923 0.058,0 -0.998,-0.146 -3.167,-0.439 -0.411,-0.058 -3.079,-0.293 -8.005,-0.703 -2.346,-0.234 -3.9,-0.586 -4.661,-1.056 C 11.264,55.421 11,54.952 11,54.366 c 0,-1.408 0.704,-2.229 2.111,-2.463 0.82,-0.117 1.876,-0.059 3.166,0.176 0.293,0.118 2.608,0.322 6.949,0.615 0.352,-2.463 0.938,-5.894 1.759,-10.291 1.817,-7.213 3.724,-16.361 5.718,-27.444 -0.587,-0.116 -1.202,-0.176 -1.847,-0.176 -1.115,0 -2.771,0.323 -4.971,0.968 -2.198,0.646 -3.826,0.968 -4.882,0.968 -0.41,0 -0.997,-0.321 -1.759,-0.968 -0.235,-0.704 -0.074,-1.333 0.483,-1.891 0.557,-0.557 1.173,-0.894 1.848,-1.012 0.674,-0.117 1.744,-0.322 3.211,-0.616 2.521,-0.469 5.57,-0.82 9.147,-1.056 1.7,-0.116 2.58,-0.176 2.639,-0.176 0.938,0.118 1.642,0.572 2.111,1.363 0.469,0.792 0.938,2.067 1.407,3.826 0.586,2.171 0.981,3.49 1.188,3.959 0.205,0.47 0.542,1.231 1.012,2.287 0.233,0.703 0.673,1.759 1.319,3.166 1.349,3.226 3.459,8.269 6.334,15.129 1.055,2.815 2.727,7.097 5.014,12.843 0.996,-0.117 2.287,-0.616 3.869,-1.495 1.584,-0.88 2.756,-1.319 3.52,-1.319 0.703,0 1.377,0.264 2.023,0.791 0.176,0.176 0.32,0.616 0.439,1.319 0.059,0.764 -0.029,1.292 -0.262,1.585 z M 43.018,41.703 c -1.001,-1.935 -2.264,-4.869 -3.792,-8.8 -0.588,-1.349 -2.174,-4.868 -4.761,-10.56 l -4.35,22.176 c 5.267,-0.996 9.391,-1.759 12.376,-2.288 0.351,-0.233 0.527,-0.41 0.527,-0.528 z" />
    </g>
  </g>
</svg>

<svg version="1.1" width="74" height="75" xmlns="http://www.w3.org/2000/svg" xmlns:xlink="http://www.w3.org/1999/xlink">
  <!-- Exported by Scratch - http://scratch.mit.edu/ -->
  <g id="ID0.49839345877990127">
    <g id="ID0.14111100835725665">
      <g id="ID0.9008341920562088">
        <path id="ID0.17456053430214524" fill="#00CCCC" d="M 73.780 52.060 C 73.750 51.710 73.710 51.370 73.660 51.030 C 73.470 49.910 72.890 46.510 70.150 43.770 C 69.890 43.510 69.610 43.260 69.320 43.030 C 66.440 40.670 62.950 39.530 59.360 39.800 C 58.930 38.680 58.560 37.700 58.250 36.870 C 58.200 36.740 58.140 36.610 58.090 36.480 C 55.220 29.620 53.110 24.580 51.760 21.360 C 51.710 21.240 51.660 21.130 51.610 21.010 C 50.920 19.510 50.740 18.990 50.730 18.970 C 50.620 18.630 50.490 18.290 50.340 17.960 C 49.970 17.130 49.680 16.480 49.480 16.010 C 49.390 15.740 49.170 15.010 48.720 13.350 C 47.970 10.550 47.160 8.460 46.140 6.750 C 43.950 3.050 40.230 0.630 35.950 0.090 C 35.490 0.030 35.030 0 34.570 0 C 34.130 0 34.130 0 31.210 0.200 C 27.160 0.470 23.750 0.870 20.780 1.420 L 20.630 1.450 C 19.290 1.720 18.310 1.900 17.680 2.010 C 14.780 2.520 12.100 3.930 9.950 6.080 C 6.470 9.570 5.270 14.610 6.810 19.240 C 7.450 21.140 8.600 22.840 10.130 24.140 C 11.020 24.900 13.470 26.980 17.080 27.560 C 16.130 32.120 15.210 36.180 14.320 39.720 C 14.260 39.940 14.210 40.160 14.170 40.380 C 14.140 40.540 14.110 40.690 14.090 40.840 C 13.220 40.850 12.370 40.900 11.560 41.010 C 11.470 41.030 11.390 41.040 11.300 41.050 C 4.540 42.180 0 47.530 0 54.370 C 0 58.600 2.130 62.550 5.690 64.920 C 5.790 65 5.900 65.070 6.010 65.130 C 8.330 66.560 11.120 67.350 15.360 67.770 C 15.420 67.780 15.480 67.790 15.540 67.790 C 21.450 68.280 22.780 68.410 23.060 68.440 C 24.420 68.630 25.300 68.750 25.720 68.810 C 26.340 68.920 26.970 68.970 27.630 68.970 C 29.400 68.970 31.130 68.650 32.740 68.030 C 33.510 69.320 34.510 70.490 35.720 71.480 C 38.200 73.520 41.120 74.600 44.160 74.600 C 44.290 74.600 44.420 74.600 44.550 74.590 C 48.470 74.460 51.570 73.510 54.050 71.720 C 54.190 71.620 54.320 71.520 54.450 71.410 C 57 69.380 60.180 67.610 63.890 66.150 C 65.850 65.430 68.650 64.180 70.810 61.710 C 70.940 61.570 71.050 61.430 71.160 61.290 C 72.540 59.550 74.110 56.540 73.780 52.060 Z M 20.990 66.750 C 22.010 67.520 23.180 68.120 24.430 68.510 C 23.170 68.140 22.010 67.530 20.990 66.750 Z "/>
      </g>
    </g>
    <g id="ID0.9128967123106122">
      <path id="ID0.027485548984259367" fill="#FFFFFF" d="M 62.546 54.454 C 62.134 54.924 61.284 55.392 59.995 55.861 C 55.184 57.738 51.052 60.054 47.593 62.810 C 46.947 63.279 45.802 63.542 44.161 63.601 C 43.691 63.601 43.207 63.395 42.710 62.986 C 42.211 62.576 41.962 62.106 41.962 61.579 C 41.962 60.875 42.754 59.967 44.337 58.851 C 45.450 58.148 46.566 57.414 47.681 56.652 C 47.738 56.360 46.771 52.900 44.775 46.273 C 41.547 46.215 36.470 47.269 29.546 49.438 C 29.134 49.556 28.899 49.790 28.841 50.142 C 28.782 50.494 28.694 51.079 28.577 51.900 C 28.464 52.076 28.352 52.339 28.240 52.691 C 28.240 52.926 28.577 53.176 29.252 53.440 C 29.925 53.705 30.352 53.955 30.527 54.188 C 30.703 54.423 30.791 54.715 30.791 55.068 C 30.791 55.771 30.483 56.432 29.867 57.048 C 29.252 57.663 28.504 57.971 27.625 57.971 C 27.683 57.971 26.627 57.825 24.458 57.532 C 24.047 57.474 21.379 57.239 16.453 56.829 C 14.107 56.595 12.553 56.243 11.792 55.773 C 11.264 55.421 11 54.952 11 54.366 C 11 52.958 11.704 52.137 13.111 51.903 C 13.931 51.786 14.987 51.844 16.277 52.079 C 16.570 52.197 18.885 52.401 23.226 52.694 C 23.578 50.231 24.164 46.800 24.985 42.403 C 26.802 35.190 28.709 26.042 30.703 14.959 C 30.116 14.843 29.501 14.783 28.856 14.783 C 27.741 14.783 26.085 15.106 23.885 15.751 C 21.687 16.397 20.059 16.719 19.003 16.719 C 18.593 16.719 18.006 16.398 17.244 15.751 C 17.009 15.047 17.170 14.418 17.727 13.860 C 18.284 13.303 18.900 12.966 19.575 12.848 C 20.249 12.731 21.319 12.526 22.786 12.232 C 25.307 11.763 28.356 11.412 31.933 11.176 C 33.633 11.060 34.513 11 34.572 11 C 35.510 11.118 36.214 11.572 36.683 12.363 C 37.152 13.155 37.621 14.430 38.090 16.189 C 38.676 18.360 39.071 19.679 39.278 20.148 C 39.483 20.618 39.820 21.379 40.290 22.435 C 40.523 23.138 40.963 24.194 41.609 25.601 C 42.958 28.827 45.068 33.870 47.943 40.730 C 48.998 43.545 50.670 47.827 52.957 53.573 C 53.953 53.456 55.244 52.957 56.826 52.078 C 58.410 51.198 59.582 50.759 60.346 50.759 C 61.049 50.759 61.723 51.023 62.369 51.550 C 62.545 51.726 62.689 52.166 62.808 52.869 C 62.867 53.633 62.779 54.161 62.546 54.454 Z M 43.018 41.703 C 42.017 39.768 40.754 36.834 39.226 32.903 C 38.638 31.554 37.052 28.035 34.465 22.343 L 30.115 44.519 C 35.382 43.523 39.506 42.760 42.491 42.231 C 42.842 41.998 43.018 41.821 43.018 41.703 Z "/>
    </g>
  </g>
</svg>
